X:1
T:Title
%%score { 1 | 2 }
L:1/8
Q:1/4=120
M:6/8
K:Eb
V:1 treble nm="Piano" snm="Pno."
V:2 bass 
V:1
"^\n"!p! b |"_legato\n" (3g/b/a/(3g/f/e/(3d/c/B/ (3A/G/F/(3E/D/C/(3B,/C/D/ | %2
 (3E/D/E/(3=E/_E/=E/(3F/E/F/ (3_G/F/G/(3=G/_G/=G/(3A/G/A/ | %3
!<(! (3G/B/A/(3G/A/B/(3c/d/e/ (3f/c'/b/(3a/g/f/(3e/d/c/!<)! | %4
!mp! (3B/f/e/(3d/c/B/(3A/G/F/!>(! (3E/F/G/(3A/B/c/(3d/e/f/!>)! | %5
!p! (3g/b/a/(3g/f/e/(3d/c/B/ (3A/G/F/(3E/D/C/(3B,/C/D/ | %6
 (3E/D/E/(3=E/_E/=E/(3F/E/F/ (3_G/F/G/(3=G/_G/=G/(3A/G/A/ | %7
 (3G/B/A/(3G/A/B/(3c/d/e/ (3f/c'/b/(3a/g/f/(3e/d/c/ | %8
 (3d/f/e/(3d/e/f/(3g/a/b/ (3e/f/g/(3a/b/c'/(3d'/e'/f'/ |] %9
V:2
 z | E, B,2 F, B,2 | G, B,2 D, B,2 | E, B,2 .A,, [A,C]2 | .B,, [B,D]2 E, [B,E]2 | E, B,2 F, B,2 | %6
 G, B,2 D, B,2 | E, B,2 .A,, [A,C]2 | .B,, [B,D]2 E, [B,E]2 |] %9

